icons/purgatory/icon_deactivate-card_m_color.svg

<?xml version="1.0" encoding="UTF-8"?>
<svg width="24px" height="24px" viewBox="0 0 24 24" version="1.1" xmlns="http://www.w3.org/2000/svg" xmlns:xlink="http://www.w3.org/1999/xlink">
    <!-- Generator: Sketch 47.1 (45422) - http://www.bohemiancoding.com/sketch -->
    <title>icon_add__m__black copy</title>
    <desc>Created with Sketch.</desc>
    <defs></defs>
    <g id="Symbols" stroke="none" stroke-width="1" fill="none" fill-rule="evenodd">
        <g id="icon_add__m__black-copy">
            <g id="icon_action_close__m">
                <g id="Group">
                    <rect id="ph" x="0" y="0" width="24" height="24"></rect>
                    <path d="M12.0032964,12.7169959 L19.2130771,19.9267767 L19.9267767,19.2130771 L12.7169959,12.0032964 L20,4.72029233 L19.2797077,4 L11.9967036,11.2830041 L4.78692286,4.0732233 L4.0732233,4.78692286 L11.2830041,11.9967036 L4,19.2797077 L4.72029233,20 L12.0032964,12.7169959 Z" id="Combined-Shape" fill="#EF3124" fill-rule="nonzero"></path>
                </g>
            </g>
        </g>
    </g>
</svg>

<svg width="24" height="24" viewBox="0 0 24 24" xmlns="http://www.w3.org/2000/svg">
  <g fill="none" fill-rule="evenodd">
    <path d="M0 0h24v24H0z"/>
    <path d="M12.003 12.717l7.21 7.21.714-.714-7.21-7.21L20 4.72 19.28 4l-7.283 7.283-7.21-7.21-.714.714 7.21 7.21L4 19.28l.72.72 7.283-7.283z" fill="#EF3124" fill-rule="nonzero"/>
  </g>
</svg>
